src/assets/cards/AD.svg

<svg clip-rule="evenodd" fill-rule="evenodd" stroke-linejoin="round" stroke-miterlimit="2" viewBox="0 0 934 1300" xmlns="http://www.w3.org/2000/svg"><g fill="#d40000" fill-rule="nonzero"><path d="m373.45 650.552c41.334-40.342 68.479-84.323 94.446-126.622 22.768 46.539 55.446 87.258 90.783 126.622-37.809 39.038-67.112 80.772-90.67 124.652-26.117-44.984-53.602-85.715-94.559-124.652z"/><path d="m819.223 1038.06c16.935-16.52 28.061-34.55 38.686-51.874 9.333 19.064 22.718 35.734 37.194 51.874-15.492 15.99-27.497 33.09-37.144 51.06-10.7-18.42-21.952-35.12-38.736-51.06z"/><path d="m34.304 264.365c16.935-16.534 28.061-34.547 38.699-51.871 9.32 19.067 22.705 35.739 37.181 51.871-15.492 15.981-27.484 33.079-37.143 51.055-10.688-18.428-21.953-35.112-38.737-51.055z"/><path d="m31.758 192.336v-11.403h11.089l23.595-121.968h13.423l26.016 121.968h8.945v11.403h-30.483v-11.403h8.229l-3.274-18.691h-30.771l-2.383 18.691h8.241v11.403zm54.906-43.404-13.372-65.292-12.532 65.292z"/><path d="m901.576 1107.66v11.41h-11.089l-23.596 121.97h-13.435l-26.004-121.97h-8.957v-11.41h30.495v11.41h-8.241l3.286 18.69h30.771l2.371-18.69h-8.229v-11.41zm-54.906 43.41 13.372 65.29 12.519-65.29z"/></g></svg>

<?xml version="1.0" encoding="UTF-8" standalone="no"?>
<!DOCTYPE svg PUBLIC "-//W3C//DTD SVG 1.1//EN" "http://www.w3.org/Graphics/SVG/1.1/DTD/svg11.dtd">
<svg width="100%" height="100%" viewBox="0 0 934 1300" version="1.1" xmlns="http://www.w3.org/2000/svg" xmlns:xlink="http://www.w3.org/1999/xlink" xml:space="preserve" xmlns:serif="http://www.serif.com/" style="fill-rule:evenodd;clip-rule:evenodd;stroke-linejoin:round;stroke-miterlimit:2;">
    <g id="AD">
        <path d="M373.45,650.552C414.784,610.21 441.929,566.229 467.896,523.93C490.664,570.469 523.342,611.188 558.679,650.552C520.87,689.59 491.567,731.324 468.009,775.204C441.892,730.22 414.407,689.489 373.45,650.552Z" style="fill:rgb(212,0,0);fill-rule:nonzero;"/>
        <path d="M819.223,1038.06C836.158,1021.54 847.284,1003.51 857.909,986.186C867.242,1005.25 880.627,1021.92 895.103,1038.06C879.611,1054.05 867.606,1071.15 857.959,1089.12C847.259,1070.7 836.007,1054 819.223,1038.06Z" style="fill:rgb(212,0,0);fill-rule:nonzero;"/>
        <path d="M34.304,264.365C51.239,247.831 62.365,229.818 73.003,212.494C82.323,231.561 95.708,248.233 110.184,264.365C94.692,280.346 82.7,297.444 73.041,315.42C62.353,296.992 51.088,280.308 34.304,264.365Z" style="fill:rgb(212,0,0);fill-rule:nonzero;"/>
        <path d="M31.758,192.336L31.758,180.933L42.847,180.933L66.442,58.965L79.865,58.965L105.881,180.933L114.826,180.933L114.826,192.336L84.343,192.336L84.343,180.933L92.572,180.933L89.298,162.242L58.527,162.242L56.144,180.933L64.385,180.933L64.385,192.336L31.758,192.336ZM86.664,148.932L73.292,83.64L60.76,148.932L86.664,148.932Z" style="fill:rgb(212,0,0);fill-rule:nonzero;"/>
        <path d="M901.576,1107.66L901.576,1119.07L890.487,1119.07L866.891,1241.04L853.456,1241.04L827.452,1119.07L818.495,1119.07L818.495,1107.66L848.99,1107.66L848.99,1119.07L840.749,1119.07L844.035,1137.76L874.806,1137.76L877.177,1119.07L868.948,1119.07L868.948,1107.66L901.576,1107.66ZM846.67,1151.07L860.042,1216.36L872.561,1151.07L846.67,1151.07Z" style="fill:rgb(212,0,0);fill-rule:nonzero;"/>
    </g>
</svg>
